www/assets/icons/car_repair.svg

<svg xmlns="http://www.w3.org/2000/svg" width="24" height="24" viewBox="0 0 24 24" fill='currentColor'><path d="M16.22 11.5c.68 0 1.22-.54 1.22-1.22 0-.67-.54-1.22-1.22-1.22S15 9.61 15 10.28c0 .68.55 1.22 1.22 1.22m-9.66-1.22c0 .67.54 1.22 1.22 1.22S9 10.96 9 10.28c0-.67-.54-1.22-1.22-1.22s-1.22.55-1.22 1.22M7.61 3.5l-1.33 4h11.43l-1.33-4zm8.67-1s.54.01.92.54c.02.02.03.04.05.07.07.11.14.24.19.4.22.65 1.56 4.68 1.56 4.68v6.5c0 .45-.35.81-.78.81h-.44c-.43 0-.78-.36-.78-.81V13.5H7v1.19c0 .45-.35.81-.78.81h-.44c-.43 0-.78-.36-.78-.81v-6.5S6.34 4.17 6.55 3.5c.05-.16.12-.28.19-.4.03-.02.04-.04.06-.06.38-.53.92-.54.92-.54zM4 16.51h16v1.99h-7v3h-2v-3H4z"/></svg>

<svg width="24" height="24" viewBox="0 0 24 24" xmlns="http://www.w3.org/2000/svg" fill='currentColor'><path d="M16.22 11.5C16.9 11.5 17.44 10.96 17.44 10.28C17.44 9.61 16.9 9.06 16.22 9.06C15.54 9.06 15 9.61 15 10.28C15 10.96 15.55 11.5 16.22 11.5ZM6.56 10.28C6.56 10.95 7.1 11.5 7.78 11.5C8.46 11.5 9 10.96 9 10.28C9 9.61 8.46 9.06 7.78 9.06C7.1 9.06 6.56 9.61 6.56 10.28ZM7.61 3.5L6.28 7.5H17.71L16.38 3.5H7.61ZM16.28 2.5C16.28 2.5 16.82 2.51 17.2 3.04C17.22 3.06 17.23 3.08 17.25 3.11C17.32 3.22 17.39 3.35 17.44 3.51C17.66 4.16 19 8.19 19 8.19V14.69C19 15.14 18.65 15.5 18.22 15.5H17.78C17.35 15.5 17 15.14 17 14.69V13.5H7V14.69C7 15.14 6.65 15.5 6.22 15.5H5.78C5.35 15.5 5 15.14 5 14.69V8.19C5 8.19 6.34 4.17 6.55 3.5C6.6 3.34 6.67 3.22 6.74 3.1C6.77 3.08 6.78 3.06 6.8 3.04C7.18 2.51 7.72 2.5 7.72 2.5H16.28ZM4 16.51H20V18.5H13V21.5H11V18.5H4V16.51Z"/></svg>
